X: 114103
T: GAREY COTTAGE
Q: "Strathspey."
R:  Strathspey.
%R: strathspey
B: James Kerr "Merry Melodies" v.1 p.14 s.1 #3
Z: 2017 John Chambers <jc:trillian.mit.edu>
M: C
L: 1/16
K: F
(cB) |\
(AF3) (3(A2B2c2) A4 uF3uA | vB3uG BAGF EG3 G3B |\
(AF3) (3(A2B2c2) A4 uF3uA | (Bd3) c3B (AF3) F2 :|\
ue2 |\
f3c fgag f4 (cf3) | b3ag3f (eg3) g3a |
f3c fgag f4 (df3) | ec3 b3g af3 f3a |\
f3c fgag f4 (cf3) | b3ag3f eg3 g2(fe) |\
db3 ca3 Bg3 Af3 | dcBA Gc3 AF3 F2 |]

%%sep 1 1 500
%%sep 1 1 500

